X: 11666
T: Eileen O'Keefe's
R: polka
M: 2/4
K: Amajor
f|:ec BA/B/|cA F2|EF AB|cB Bf|
ec BA/B/|cA F2|EF AB|1 BA Af:|2 BA AB||
|:ce a2|ce f2|ce fg/f/|ec BA/B/|
ce a2|ce f2|ec BA/B/|1 cA AB:|2 cA Af||

